Papirus/22x22/panel/state-sync.svg

<?xml version="1.0" encoding="UTF-8" standalone="no"?>
<svg xmlns:osb="http://www.openswatchbook.org/uri/2009/osb" xmlns:dc="http://purl.org/dc/elements/1.1/" xmlns:cc="http://creativecommons.org/ns#" xmlns:rdf="http://www.w3.org/1999/02/22-rdf-syntax-ns#" xmlns:svg="http://www.w3.org/2000/svg" xmlns="http://www.w3.org/2000/svg" width="22" version="1.1" style="enable-background:new" id="svg7384" height="22">
    <metadata id="metadata90">
        <rdf:RDF>
            <cc:Work rdf:about="">
                <dc:format>
                    image/svg+xml
                </dc:format>
                <dc:type rdf:resource="http://purl.org/dc/dcmitype/StillImage"/>
                <dc:title>
                    Paper Symbolic Icon Theme
                </dc:title>
            </cc:Work>
        </rdf:RDF>
    </metadata>
    <title id="title8473">
        Paper Symbolic Icon Theme
    </title>
    <defs id="defs7386">
        <linearGradient osb:paint="solid" id="linearGradient5606">
            <stop style="stop-color:#000000;stop-opacity:1;" offset="0" id="stop5608"/>
        </linearGradient>
        <filter style="color-interpolation-filters:sRGB" id="filter7554">
            <feBlend mode="darken" in2="BackgroundImage" id="feBlend7556"/>
        </filter>
    </defs>
    <g transform="translate(-624.00001,-502)" style="display:inline" id="g6058">
        <path id="path4214" transform="translate(624.00001,502)" d="M 11 3 C 6.58173 3 3 6.58173 3 11 C 3 15.41827 6.58173 19 11 19 C 15.41827 19 19 15.41827 19 11 C 19 6.58173 15.41827 3 11 3 z M 11.144531 6.9980469 L 11.144531 7 L 11.146484 7 C 12.455485 7.0480012 13.64661 7.7373594 14.349609 8.8183594 L 15.738281 8.3554688 L 14.167969 11.501953 L 11.021484 9.9277344 L 12.298828 9.5019531 C 11.960832 9.2079543 11.536314 9.0150466 11.070312 8.9980469 C 10.328313 8.9710469 9.6356731 9.3530937 9.2636719 9.9960938 L 7.53125 8.9960938 C 8.271252 7.7140934 9.6655339 6.943047 11.144531 6.9980469 z M 7.8320312 10.498047 L 10.978516 12.072266 L 9.7011719 12.498047 C 10.039168 12.792046 10.463686 12.983 10.929688 13 C 11.671683 13.027 12.364327 12.644953 12.736328 12.001953 L 14.46875 13.001953 C 13.728748 14.283953 12.334466 15.055 10.855469 15 C 9.5464682 14.952 8.3553464 14.262641 7.6523438 13.181641 L 6.2636719 13.644531 L 7.8320312 10.498047 z " style="opacity:1;fill:#ffffff;fill-opacity:1;stroke:none"/>
        <g style="fill:#000000;fill-opacity:1" transform="matrix(3.5433071,0,0,3.5433071,624.00001,502)" id="g4158">
            <g style="fill:#000000;fill-opacity:1" transform="matrix(0.28222222,0,0,0.28222222,-10.6045,0.2470856)" id="g6">
                <g style="fill:#000000;fill-opacity:1" transform="matrix(0.42297932,0,0,0.42297932,-11.083711,3.1945516)" id="g8">
<!--color: #004794-->
                </g>
            </g>
            <g transform="matrix(0.28222222,0,0,0.28222222,-10.392658,1.2296495)" style="fill:#000000;fill-opacity:1;stroke:#000000;stroke-width:1;stroke-miterlimit:4;stroke-dasharray:none;stroke-opacity:1" id="g10">
                <g transform="matrix(0.42297932,0,0,0.42297932,-11.083711,3.1945516)" style="fill:#000000;fill-opacity:1;stroke-width:2.36400008" id="g12">
<!--color: #004794-->
                </g>
            </g>
        </g>
        <g transform="matrix(3.5433071,0,0,3.5433071,539.33167,489.28141)" id="g4205">
            <g transform="matrix(0.28222222,0,0,0.28222222,-10.6045,0.2470856)" id="g6-3">
                <g transform="matrix(0.42297932,0,0,0.42297932,-11.083711,3.1945516)" id="g8-6">
<!--color: #004794-->
                </g>
            </g>
            <g transform="matrix(0.28222222,0,0,0.28222222,-10.392658,1.2296495)" style="stroke:#000000;stroke-width:1;stroke-miterlimit:4;stroke-dasharray:none;stroke-opacity:1" id="g10-7">
                <g transform="matrix(0.42297932,0,0,0.42297932,-11.083711,3.1945516)" style="stroke-width:2.36400008" id="g12-5">
<!--color: #004794-->
                </g>
            </g>
        </g>
    </g>
</svg>

<?xml version="1.0" encoding="UTF-8" standalone="no"?>
<svg id="svg7384" xmlns:rdf="http://www.w3.org/1999/02/22-rdf-syntax-ns#" style="enable-background:new" xmlns="http://www.w3.org/2000/svg" xmlns:osb="http://www.openswatchbook.org/uri/2009/osb" height="22" width="22" version="1.1" xmlns:cc="http://creativecommons.org/ns#" xmlns:dc="http://purl.org/dc/elements/1.1/">
 <metadata id="metadata90">
  <rdf:RDF>
   <cc:Work rdf:about="">
    <dc:format>image/svg+xml</dc:format>
    <dc:type rdf:resource="http://purl.org/dc/dcmitype/StillImage"/>
   </cc:Work>
  </rdf:RDF>
 </metadata>
 <g id="g6058" transform="translate(-624 -502)">
  <path id="path4214" d="m11 3c-4.4183 0-8 3.5817-8 8 0 4.418 3.5817 8 8 8 4.418 0 8-3.582 8-8 0-4.4183-3.582-8-8-8zm0.145 3.998v0.002h0.001c1.309 0.048 2.501 0.7374 3.204 1.8184l1.388-0.4629-1.57 3.1465-3.147-1.5743 1.278-0.4257c-0.338-0.294-0.763-0.487-1.229-0.504-0.742-0.027-1.4343 0.3551-1.8063 0.9981l-1.7325-1c0.7401-1.282 2.1343-2.0531 3.6138-1.9981zm-3.313 3.5l3.147 1.574-1.2778 0.426c0.3378 0.294 0.7628 0.485 1.2288 0.502 0.742 0.027 1.434-0.355 1.806-0.998l1.733 1c-0.74 1.282-2.135 2.053-3.614 1.998-1.3085-0.048-2.4997-0.737-3.2027-1.818l-1.3886 0.463 1.5683-3.147z" transform="translate(624 502)" fill="#fff"/>
  <g id="g4158" transform="matrix(3.5433 0 0 3.5433 624 502)">
   <g id="g6" transform="matrix(.28222 0 0 .28222 -10.604 .24709)">
    <g id="g8" transform="matrix(.42298 0 0 .42298 -11.084 3.1946)"><!--color: #004794--></g>
   </g>
   <g id="g10" transform="matrix(.28222 0 0 .28222 -10.393 1.2296)" stroke="#000">
    <g id="g12" transform="matrix(.42298 0 0 .42298 -11.084 3.1946)" stroke-width="2.364"><!--color: #004794--></g>
   </g>
  </g>
  <g id="g4205" transform="matrix(3.5433 0 0 3.5433 539.33 489.28)">
   <g id="g6-3" transform="matrix(.28222 0 0 .28222 -10.604 .24709)">
    <g id="g8-6" transform="matrix(.42298 0 0 .42298 -11.084 3.1946)"><!--color: #004794--></g>
   </g>
   <g id="g10-7" transform="matrix(.28222 0 0 .28222 -10.393 1.2296)" stroke="#000">
    <g id="g12-5" stroke-width="2.364" transform="matrix(.42298 0 0 .42298 -11.084 3.1946)"><!--color: #004794--></g>
   </g>
  </g>
 </g>
</svg>
